; generated by Slic3r 0.9.9 on 2013-05-20 at 12:26:08

; layer_height = 0.2
; perimeters = 2
; top_solid_layers = 4
; bottom_solid_layers = 4
; fill_density = 0.2
; perimeter_speed = 40
; infill_speed = 45
; travel_speed = 40
; nozzle_diameter = 0.5
; filament_diameter = 1.7
; extrusion_multiplier = 1
; perimeters extrusion width = 0.85mm
; infill extrusion width = 1.02mm
; solid infill extrusion width = 0.85mm
; top infill extrusion width = 0.85mm

G21 ; set units to millimeters
M107
M190 S120 ; wait for bed temperature to be reached
G28 ; home all axes
M109 S230
G92 E0
M82 ; use absolute distances for extrusion
G1 F500.000 E35.00000
G1 Z0.3 F2400.000
G92 Z0
G90 ; use absolute coordinates
G92 E0
M82 ; use absolute distances for extrusion
G1 F5400.000 E-4.00000
G92 E0
G1 Z0.300 F2400.000
G1 X18.630 Y8.775
G1 F5400.000 E4.00000
G1 X18.870 Y8.305 F1680.000 E4.05629
G1 X19.350 Y7.555 E4.15128
G1 X19.630 Y7.195 E4.19993
G1 X19.870 Y6.925 E4.23846
G1 X20.430 Y6.375 E4.32219
G1 X20.810 Y6.055 E4.37519
G1 X21.280 Y5.715 E4.43707
G1 X21.960 Y5.325 E4.52069
G1 X22.590 Y5.035 E4.59467
G1 X23.320 Y4.785 E4.67698
G1 X38.410 Y0.305 E6.35610
G1 X38.710 Y0.225 E6.38922
G1 X39.320 Y0.115 E6.45534
G1 X39.620 Y0.075 E6.48762
G1 X40.240 Y0.045 E6.55384
G1 X64.840 Y0.045 E9.17796
G1 X65.410 Y0.065 E9.23880
G1 X65.970 Y0.145 E9.29915
G1 X86.660 Y4.785 E11.56101
G1 X87.210 Y4.965 E11.62274
G1 X87.480 Y5.075 E11.65384
G1 X88.240 Y5.445 E11.74401
G1 X88.770 Y5.755 E11.80950
G1 X89.260 Y6.125 E11.87500
G1 X89.700 Y6.505 E11.93702
G1 X90.150 Y6.955 E12.00490
G1 X90.560 Y7.455 E12.07388
G1 X91.040 Y8.175 E12.16618
G1 X91.190 Y8.445 E12.19913
G1 X91.330 Y8.705 E12.23063
G1 X91.640 Y9.455 E12.31720
G1 X91.790 Y9.935 E12.37084
G1 X91.910 Y10.425 E12.42466
G1 X91.980 Y10.865 E12.47218
G1 X92.060 Y11.865 E12.57920
G1 X92.060 Y100.525 E22.03672
G1 X92.020 Y101.015 E22.08917
G1 X91.950 Y101.495 E22.14091
G1 X91.830 Y102.075 E22.20409
G1 X91.740 Y102.395 E22.23955
G1 X91.520 Y103.015 E22.30973
G1 X91.130 Y103.815 E22.40467
G1 X90.820 Y104.345 E22.47016
G1 X90.250 Y105.075 E22.56896
G1 X89.620 Y105.725 E22.66552
G1 X89.120 Y106.135 E22.73449
G1 X88.400 Y106.615 E22.82680
G1 X88.130 Y106.765 E22.85975
G1 X87.870 Y106.905 E22.89125
G1 X87.120 Y107.215 E22.97782
G1 X86.640 Y107.365 E23.03146
G1 X86.150 Y107.485 E23.08528
G1 X85.710 Y107.555 E23.13280
G1 X84.710 Y107.635 E23.23981
G1 X25.210 Y107.635 E29.58679
G1 X24.550 Y107.605 E29.65727
G1 X23.900 Y107.505 E29.72742
G1 X23.390 Y107.375 E29.78356
G1 X22.410 Y107.035 E29.89421
G1 X21.930 Y106.815 E29.95054
G1 X21.360 Y106.485 E30.02079
G1 X21.090 Y106.295 E30.05601
G1 X20.410 Y105.755 E30.14864
G1 X20.200 Y105.565 E30.17885
G1 X19.810 Y105.155 E30.23921
G1 X19.270 Y104.475 E30.33184
G1 X19.080 Y104.205 E30.36705
G1 X18.750 Y103.635 E30.43731
G1 X18.530 Y103.155 E30.49364
G1 X18.320 Y102.605 E30.55644
G1 X18.230 Y102.325 E30.58781
G1 X18.040 Y101.495 E30.67864
G1 X17.970 Y101.015 E30.73038
G1 X17.930 Y100.525 E30.78283
G1 X17.930 Y11.795 E40.24782
G1 X17.960 Y11.165 E40.31510
G1 X18.050 Y10.545 E40.38193
G1 X18.150 Y10.115 E40.42902
G1 X18.350 Y9.455 E40.50259
G1 X18.580 Y8.885 E40.56813
G1 X19.360 Y9.115 F2400.000
G1 X19.690 Y8.505 F1680.000 E40.64211
G1 X20.130 Y7.865 E40.72496
G1 X20.470 Y7.465 E40.78096
G1 X20.960 Y6.985 E40.85413
G1 X21.510 Y6.535 E40.92993
G1 X21.940 Y6.255 E40.98467
G1 X22.510 Y5.955 E41.05338
G1 X22.890 Y5.785 E41.09779
G1 X23.550 Y5.565 E41.17200
G1 X38.640 Y1.085 E42.85112
G1 X38.960 Y0.995 E42.88658
G1 X39.590 Y0.885 E42.95480
G1 X40.240 Y0.855 E43.02421
G1 X65.090 Y0.855 E45.67500
G1 X65.830 Y0.935 E45.75440
G1 X86.450 Y5.565 E48.00874
G1 X87.160 Y5.815 E48.08904
G1 X87.910 Y6.175 E48.17778
G1 X88.450 Y6.515 E48.24585
G1 X88.960 Y6.925 E48.31565
G1 X89.360 Y7.295 E48.37378
G1 X89.740 Y7.715 E48.43420
G1 X89.910 Y7.935 E48.46385
G1 X90.210 Y8.375 E48.52066
G1 X90.480 Y8.825 E48.57664
G1 X90.710 Y9.295 E48.63246
G1 X90.880 Y9.735 E48.68277
G1 X91.070 Y10.365 E48.75297
G1 X91.160 Y10.795 E48.79983
G1 X91.190 Y10.985 E48.82035
G1 X91.250 Y11.865 E48.91444
G1 X91.250 Y100.495 E58.36877
G1 X91.190 Y101.135 E58.43734
G1 X90.970 Y102.165 E58.54969
G1 X90.770 Y102.705 E58.61111
G1 X90.400 Y103.485 E58.70320
G1 X90.060 Y104.025 E58.77127
G1 X89.650 Y104.535 E58.84108
G1 X89.080 Y105.125 E58.92859
G1 X88.640 Y105.485 E58.98923
G1 X88.200 Y105.785 E59.04604
G1 X87.750 Y106.055 E59.10202
G1 X87.280 Y106.285 E59.15783
G1 X86.840 Y106.455 E59.20815
G1 X86.210 Y106.645 E59.27834
G1 X85.780 Y106.735 E59.32521
G1 X85.590 Y106.765 E59.34572
G1 X84.710 Y106.825 E59.43981
G1 X24.920 Y106.825 E65.81773
G1 X24.350 Y106.765 E65.87886
G1 X24.060 Y106.715 E65.91026
G1 X23.590 Y106.595 E65.96200
G1 X22.740 Y106.295 E66.05815
G1 X22.300 Y106.095 E66.10971
G1 X22.050 Y105.955 E66.14027
G1 X21.560 Y105.645 E66.20213
G1 X20.760 Y104.985 E66.31276
G1 X20.420 Y104.625 E66.36558
G1 X19.920 Y104.005 E66.45054
G1 X19.470 Y103.265 E66.54293
G1 X19.080 Y102.345 E66.64952
G1 X18.940 Y101.855 E66.70388
G1 X18.800 Y101.135 E66.78212
G1 X18.740 Y100.495 E66.85069
G1 X18.740 Y11.525 E76.34129
G1 X18.760 Y11.245 E76.37123
G1 X18.840 Y10.705 E76.42946
G1 X18.900 Y10.435 E76.45897
G1 X19.110 Y9.735 E76.53693
G1 X19.313 Y9.226 E76.59533
G1 X20.010 Y9.635 F2400.000
G1 X20.270 Y9.105 F1680.000 E76.65830
G1 X20.560 Y8.635 E76.71721
G1 X20.760 Y8.365 E76.75305
G1 X21.070 Y8.005 E76.80373
G1 X21.640 Y7.465 E76.88749
G1 X22.160 Y7.065 E76.95747
G1 X22.710 Y6.755 E77.02482
G1 X23.180 Y6.535 E77.08017
G1 X23.780 Y6.335 E77.14764
G1 X38.870 Y1.855 E78.82676
G1 X39.410 Y1.725 E78.88601
G1 X39.690 Y1.685 E78.91618
G1 X40.240 Y1.655 E78.97493
G1 X64.840 Y1.655 E81.59906
G1 X65.260 Y1.675 E81.64391
G1 X65.480 Y1.705 E81.66760
G1 X65.890 Y1.775 E81.71197
G1 X86.020 Y6.295 E83.91274
G1 X86.440 Y6.405 E83.95905
G1 X86.850 Y6.555 E84.00562
G1 X87.270 Y6.755 E84.05524
G1 X87.520 Y6.885 E84.08530
G1 X87.990 Y7.175 E84.14421
G1 X88.420 Y7.525 E84.20336
G1 X88.790 Y7.865 E84.25696
G1 X89.110 Y8.225 E84.30834
G1 X89.400 Y8.605 E84.35933
G1 X89.660 Y9.005 E84.41022
G1 X89.970 Y9.615 E84.48321
G1 X90.240 Y10.375 E84.56925
G1 X90.330 Y10.735 E84.60883
G1 X90.390 Y11.115 E84.64987
G1 X90.450 Y11.865 E84.73013
G1 X90.450 Y100.285 E94.16205
G1 X90.420 Y100.835 E94.22081
G1 X90.260 Y101.695 E94.31412
G1 X90.120 Y102.165 E94.36643
G1 X90.030 Y102.395 E94.39278
G1 X89.690 Y103.095 E94.47579
G1 X89.400 Y103.565 E94.53470
G1 X88.870 Y104.195 E94.62253
G1 X88.530 Y104.535 E94.67382
G1 X87.970 Y104.975 E94.74979
G1 X87.570 Y105.235 E94.80068
G1 X86.960 Y105.545 E94.87367
G1 X86.200 Y105.815 E94.95970
G1 X85.840 Y105.905 E94.99929
G1 X85.460 Y105.965 E95.04032
G1 X84.710 Y106.025 E95.12058
G1 X25.210 Y106.025 E101.46756
G1 X24.470 Y105.965 E101.54676
G1 X23.990 Y105.865 E101.59906
G1 X23.800 Y105.815 E101.62001
G1 X23.070 Y105.555 E101.70268
G1 X22.660 Y105.375 E101.75044
G1 X22.030 Y104.985 E101.82948
G1 X21.470 Y104.545 E101.90545
G1 X21.020 Y104.095 E101.97333
G1 X20.580 Y103.535 E102.04930
G1 X20.190 Y102.905 E102.12834
G1 X19.920 Y102.295 E102.19950
G1 X19.780 Y101.875 E102.24673
G1 X19.680 Y101.455 E102.29278
G1 X19.570 Y100.835 E102.35995
G1 X19.540 Y100.285 E102.41871
G1 X19.540 Y11.795 E111.85810
G1 X19.590 Y11.095 E111.93296
G1 X19.630 Y10.855 E111.95892
G1 X19.720 Y10.505 E111.99747
G1 X19.968 Y9.749 E112.08238
G1 F5400.000 E108.08238
G92 E0
G1 X27.189 Y15.727 F2400.000
G1 F5400.000 E4.00000
G1 X28.989 Y15.727 F1680.000 E4.19201
G1 X28.989 Y13.927 E4.38402
G1 X33.410 Y13.927 E4.85564
G1 X33.410 Y15.727 E5.04765
G1 X35.210 Y15.727 E5.23966
G1 X35.210 Y20.148 E5.71128
G1 X33.410 Y20.148 E5.90329
G1 X33.410 Y22.714 E6.17707
G1 X76.589 Y22.714 E10.78303
G1 X76.589 Y20.148 E11.05680
G1 X74.789 Y20.148 E11.24881
G1 X74.789 Y15.727 E11.72043
G1 X76.589 Y15.727 E11.91244
G1 X76.589 Y13.927 E12.10445
G1 X81.010 Y13.927 E12.57607
G1 X81.010 Y15.727 E12.76808
G1 X82.810 Y15.727 E12.96009
G1 X82.810 Y20.148 E13.43171
G1 X81.010 Y20.148 E13.62372
G1 X81.010 Y21.948 E13.81573
G1 X78.860 Y21.948 E14.04508
G1 X78.860 Y30.136 E14.91848
G1 X31.139 Y30.136 E20.00899
G1 X31.139 Y21.948 E20.88240
G1 X28.989 Y21.948 E21.11174
G1 X28.989 Y20.148 E21.30375
G1 X27.189 Y20.148 E21.49576
G1 X27.189 Y15.848 E21.95447
G1 F5400.000 E17.95447
G92 E0
G1 X75.596 Y16.534 F2400.000
G1 F5400.000 E4.00000
G1 X77.396 Y16.534 F1680.000 E4.19201
G1 X77.396 Y14.734 E4.38402
G1 X80.203 Y14.734 E4.68346
G1 X80.203 Y16.534 E4.87546
G1 X82.003 Y16.534 E5.06747
G1 X82.003 Y19.341 E5.36691
G1 X80.203 Y19.341 E5.55892
G1 X80.203 Y21.141 E5.75093
G1 X77.396 Y21.141 E6.05037
G1 X77.396 Y19.341 E6.24237
G1 X75.596 Y19.341 E6.43438
G1 X75.596 Y16.655 E6.72091
G1 X75.596 Y15.727 F2400.000
G1 F5400.000 E2.72091
G92 E0
G1 X34.403 Y16.534 F2400.000
G1 F5400.000 E4.00000
G1 X34.403 Y19.341 F1680.000 E4.29944
G1 X32.603 Y19.341 E4.49145
G1 X32.603 Y21.141 E4.68346
G1 X29.796 Y21.141 E4.98289
G1 X29.796 Y19.341 E5.17490
G1 X27.996 Y19.341 E5.36691
G1 X27.996 Y16.534 E5.66635
G1 X29.796 Y16.534 E5.85836
G1 X29.796 Y14.734 E6.05037
G1 X32.603 Y14.734 E6.34980
G1 X32.603 Y16.534 E6.54181
G1 X34.282 Y16.534 E6.72091
G1 X35.210 Y16.534 F2400.000
G1 F5400.000 E2.72091
G92 E0
G1 X31.946 Y23.521 F2400.000
G1 F5400.000 E4.00000
G1 X78.053 Y23.521 F1680.000 E8.91833
G1 X78.053 Y29.329 E9.53778
G1 X31.946 Y29.329 E14.45611
G1 X31.946 Y23.643 E15.06265
G1 X31.946 Y22.714 F2400.000
G1 F5400.000 E11.06265
G92 E0
G1 X31.139 Y32.714 F2400.000
G1 F5400.000 E4.00000
G1 X78.860 Y32.714 F1680.000 E9.09051
G1 X78.860 Y40.136 E9.88215
G1 X31.139 Y40.136 E14.97266
G1 X31.139 Y32.835 E15.75139
G1 X31.946 Y33.521 F2400.000
G1 X78.053 Y33.521 F1680.000 E20.66972
G1 X78.053 Y39.329 E21.28917
G1 X31.946 Y39.329 E26.20750
G1 X31.946 Y33.643 E26.81404
G1 X31.946 Y32.714 F2400.000
G1 F5400.000 E22.81404
G92 E0
G1 X31.139 Y42.714 F2400.000
G1 F5400.000 E4.00000
G1 X78.860 Y42.714 F1680.000 E9.09051
G1 X78.860 Y50.136 E9.88215
G1 X31.139 Y50.136 E14.97266
G1 X31.139 Y42.835 E15.75139
G1 X31.946 Y43.521 F2400.000
G1 X78.053 Y43.521 F1680.000 E20.66972
G1 X78.053 Y49.329 E21.28917
G1 X31.946 Y49.329 E26.20750
G1 X31.946 Y43.643 E26.81404
G1 X31.946 Y42.714 F2400.000
G1 F5400.000 E22.81404
G92 E0
G1 X31.139 Y52.714 F2400.000
G1 F5400.000 E4.00000
G1 X78.860 Y52.714 F1680.000 E9.09051
G1 X78.860 Y60.136 E9.88215
G1 X31.139 Y60.136 E14.97266
G1 X31.139 Y52.835 E15.75139
G1 X31.946 Y53.521 F2400.000
G1 X78.053 Y53.521 F1680.000 E20.66972
G1 X78.053 Y59.329 E21.28917
G1 X31.946 Y59.329 E26.20750
G1 X31.946 Y53.643 E26.81404
G1 X31.946 Y52.714 F2400.000
G1 F5400.000 E22.81404
G92 E0
G1 X31.139 Y62.714 F2400.000
G1 F5400.000 E4.00000
G1 X78.860 Y62.714 F1680.000 E9.09051
G1 X78.860 Y70.136 E9.88215
G1 X31.139 Y70.136 E14.97266
G1 X31.139 Y62.835 E15.75139
G1 X31.946 Y63.521 F2400.000
G1 X78.053 Y63.521 F1680.000 E20.66972
G1 X78.053 Y69.329 E21.28917
G1 X31.946 Y69.329 E26.20750
G1 X31.946 Y63.643 E26.81404
G1 X31.946 Y62.714 F2400.000
G1 F5400.000 E22.81404
G92 E0
G1 X31.139 Y72.714 F2400.000
G1 F5400.000 E4.00000
G1 X78.860 Y72.714 F1680.000 E9.09051
G1 X78.860 Y80.136 E9.88215
G1 X31.139 Y80.136 E14.97266
G1 X31.139 Y72.835 E15.75139
G1 X31.946 Y73.521 F2400.000
G1 X78.053 Y73.521 F1680.000 E20.66972
G1 X78.053 Y79.329 E21.28917
G1 X31.946 Y79.329 E26.20750
G1 X31.946 Y73.643 E26.81404
G1 X31.946 Y72.714 F2400.000
G1 F5400.000 E22.81404
G92 E0
G1 X31.139 Y82.714 F2400.000
G1 F5400.000 E4.00000
G1 X78.860 Y82.714 F1680.000 E9.09051
G1 X78.860 Y90.212 E9.89032
G1 X81.010 Y90.212 E10.11967
G1 X81.010 Y92.012 E10.31168
G1 X82.810 Y92.012 E10.50369
G1 X82.810 Y96.433 E10.97531
G1 X81.010 Y96.433 E11.16732
G1 X81.010 Y98.233 E11.35933
G1 X76.589 Y98.233 E11.83095
G1 X76.589 Y96.433 E12.02296
G1 X74.689 Y96.433 E12.22564
G1 X74.689 Y92.012 E12.69726
G1 X76.589 Y92.012 E12.89993
G1 X76.589 Y90.136 E13.10012
G1 X33.410 Y90.136 E17.70608
G1 X33.410 Y92.012 E17.90626
G1 X35.210 Y92.012 E18.09827
G1 X35.210 Y96.433 E18.56989
G1 X33.410 Y96.433 E18.76190
G1 X33.410 Y98.233 E18.95391
G1 X28.989 Y98.233 E19.42553
G1 X28.989 Y96.433 E19.61754
G1 X27.189 Y96.433 E19.80955
G1 X27.189 Y92.012 E20.28117
G1 X28.989 Y92.012 E20.47318
G1 X28.989 Y90.212 E20.66519
G1 X31.139 Y90.212 E20.89453
G1 X31.139 Y82.835 E21.68143
G1 F5400.000 E17.68143
G92 E0
G1 X29.796 Y91.019 F2400.000
G1 F5400.000 E4.00000
G1 X32.603 Y91.019 F1680.000 E4.29944
G1 X32.603 Y92.819 E4.49145
G1 X34.403 Y92.819 E4.68346
G1 X34.403 Y95.626 E4.98289
G1 X32.603 Y95.626 E5.17490
G1 X32.603 Y97.426 E5.36691
G1 X29.796 Y97.426 E5.66635
G1 X29.796 Y95.626 E5.85836
G1 X27.996 Y95.626 E6.05037
G1 X27.996 Y92.819 E6.34980
G1 X29.796 Y92.819 E6.54181
G1 X29.796 Y91.140 E6.72091
G1 X29.796 Y90.212 F2400.000
G1 F5400.000 E2.72091
G92 E0
G1 X31.946 Y89.329 F2400.000
G1 F5400.000 E4.00000
G1 X31.946 Y83.521 F1680.000 E4.61945
G1 X78.053 Y83.521 E9.53778
G1 X78.053 Y89.329 E10.15723
G1 X32.067 Y89.329 E15.06265
G1 X31.139 Y89.329 F2400.000
G1 F5400.000 E11.06265
G92 E0
G1 X75.496 Y92.819 F2400.000
G1 F5400.000 E4.00000
G1 X77.396 Y92.819 F1680.000 E4.20268
G1 X77.396 Y91.019 E4.39469
G1 X80.203 Y91.019 E4.69412
G1 X80.203 Y92.819 E4.88613
G1 X82.003 Y92.819 E5.07814
G1 X82.003 Y95.626 E5.37758
G1 X80.203 Y95.626 E5.56959
G1 X80.203 Y97.426 E5.76160
G1 X77.396 Y97.426 E6.06103
G1 X77.396 Y95.626 E6.25304
G1 X75.496 Y95.626 E6.45572
G1 X75.496 Y92.940 E6.74224
G1 X75.496 Y92.012 F2400.000
G1 F5400.000 E2.74224
G92 E0
G1 X25.562 Y12.148 F2400.000
G1 F5400.000 E4.00000
G1 X39.039 Y12.146 F1680.000 E5.43758
G1 X39.039 Y15.136 E5.75651
G1 X66.060 Y15.136 E8.63891
G1 X66.060 Y12.146 E8.95785
G1 X84.437 Y12.148 E10.91812
G1 X84.437 Y100.012 E20.29080
G1 X25.562 Y100.012 E26.57105
G1 X25.562 Y12.269 E35.93082
G1 F5400.000 E31.93082
G92 E0
G1 X41.460 Y10.514 F2400.000
G1 F5400.000 E4.00000
G1 X41.460 Y7.684 F1680.000 E4.30187
G1 X63.639 Y7.684 E6.66773
G1 X63.639 Y10.514 E6.96960
G1 X41.581 Y10.514 E9.32254
G1 X39.846 Y11.339 F2400.000
G1 X39.846 Y14.329 F1680.000 E9.64148
G1 X65.253 Y14.329 E12.35170
G1 X65.253 Y11.339 E12.67064
G1 X84.695 Y11.341 E14.74455
G1 X84.841 Y11.370 E14.76046
G1 X84.981 Y11.439 E14.77707
G1 X85.098 Y11.542 E14.79367
G1 X85.184 Y11.671 E14.81028
G1 X85.244 Y11.889 E14.83439
G1 X85.244 Y100.270 E24.26216
G1 X85.214 Y100.417 E24.27808
G1 X85.145 Y100.556 E24.29468
G1 X85.043 Y100.673 E24.31129
G1 X84.913 Y100.760 E24.32789
G1 X84.695 Y100.819 E24.35203
G1 X25.304 Y100.819 E30.68738
G1 X25.158 Y100.790 E30.70328
G1 X25.018 Y100.721 E30.71988
G1 X24.901 Y100.618 E30.73648
G1 X24.815 Y100.489 E30.75309
G1 X24.755 Y100.271 E30.77721
G1 X24.765 Y11.819 E40.21254
G1 X24.833 Y11.637 E40.23326
G1 X24.957 Y11.487 E40.25398
G1 X25.122 Y11.384 E40.27470
G1 X25.304 Y11.341 E40.29473
G1 X39.725 Y11.339 E41.83304
G1 X39.443 Y12.038 F2400.000
G1 X40.653 Y11.321
G1 X40.653 Y6.877 F1680.000 E42.30710
G1 X64.446 Y6.877 E44.84513
G1 X64.446 Y11.321 E45.31919
G1 X40.774 Y11.321 E47.84431
G1 X41.057 Y10.623 F2400.000
G1 F5400.000 E43.84431
G92 E0
G1 X83.852 Y97.018 F2400.000
G1 F5400.000 E4.00000
G1 X83.852 Y98.185 F1890.000 E4.12714
G1 X82.685 Y97.018 E4.30695
G1 X81.595 Y97.095 E4.42607
G1 X83.852 Y99.351 E4.77392
G1 X82.762 Y99.427 E4.89304
G1 X81.595 Y98.261 E5.07284
G1 X81.596 Y99.427 E5.19998
G1 F5400.000 E1.19998
G92 E0
G1 X83.384 Y96.667 F2400.000
G1 F5400.000 E4.00000
G1 X83.863 Y96.610 F1680.000 E4.02423
G1 X83.384 Y96.130 E4.05827
G1 X83.863 Y96.073 E4.08251
G1 X83.384 Y95.593 E4.11654
G1 X83.863 Y95.536 E4.14078
G1 X83.384 Y95.057 E4.17482
G1 X83.863 Y95.000 E4.19906
G1 X83.384 Y94.520 E4.23310
G1 X83.863 Y94.463 E4.25733
G1 X83.384 Y93.983 E4.29137
G1 X83.863 Y93.926 E4.31561
G1 X83.384 Y93.446 E4.34965
G1 X83.863 Y93.389 E4.37389
G1 X83.384 Y92.909 E4.40792
G1 X83.863 Y92.852 E4.43216
G1 X83.384 Y92.373 E4.46620
G1 X83.863 Y92.316 E4.49044
G1 X83.384 Y91.836 E4.52448
G1 X83.863 Y91.779 E4.54871
G1 F5400.000 E0.54871
G92 E0
G1 X76.611 Y99.184 F2400.000
G1 F5400.000 E4.00000
G1 X77.989 Y99.062 F1680.000 E4.19395
G1 X78.111 Y99.184 E4.21813
G1 X79.489 Y99.062 E4.41208
